!!!!SEGMENT: pl-kk--kk-i-382--081-001_richling--msza-na-3-glosy-requiem.krn
!!!cenid: 18xx:1613
!!!COM: Richling
!!!COM-rismID: pe50045950
!!!CDT:
!!!CNT:
!!!OPR: Msza na 3 głosy
!!!OTL: Requiem
!!!OMV: 001
!!!PDT:
!!!AGN: Sacred; Mass
!!!SMS-siglum: PL-Kk
!!!SMS-shelfmark: Kk.I.382
!!!SMS-shelfwork: 081-001 M
!!!SMS-variant:
!!!SMS-altvar:
!!!NIFC-rismSourceID: 1001139027
!!!NIFC-rismChildID: 1001142973
!!!NIFC-islandoraID: pl-kk:6162
!!!URL-pdf-islandora: https://repozytorium.nifc.pl/islandora/object/pl-kk%3A6162/datastream/PDF/view
!!!URL-scan: https://polish.musicsources.pl/pl/lokalizacje/galeria/rekopisy/5994 @EN{Scan on Polish Music Sources Website} @PL{Skany w portalu Dziedzictwo Muzyki Polskiej w otwartym dostępie}
!!!IIIF:
!!!ONB-nifc: S/T1 od 0065, A/B1 od 0208, B2 od 0282. Części Mszy: 1. Requiem, 2. Dies irae, 3. Offertorium, 4. Sanctus, 5. Benedictus, 6. Agnus, 7. Graduale, 8. Offertorium
!!!AIN: 1 alto 1 bass 1 tenor
!!!key:
**kern	**text	**kern	**text	**kern	**text
*part3	*part3	*part2	*part2	*part1	*part1
*staff3	*staff3	*staff2	*staff2	*staff1	*staff1
*Ibass	*	*Ialto	*	*Itenor	*
*I"Basso II	*	*I"Alto. vel Basso I	*	*I"Soprano vel Tenore I.	*
*I'B 2	*	*I'A/B 1	*	*I'S/T 1	*
*clefF4	*	*clefF4	*	*clefG2	*
*	*	*	*	*ITrd7c12	*
*k[]	*	*k[]	*	*k[]	*
*a:	*	*a:	*	*a:	*
*M4/4	*	*M4/4	*	*M4/4	*
*met(c)	*	*met(c)	*	*met(c)	*
=1	=1	=1	=1	=1	=1
*2/left	*	*2\right	*	*2\right	*
!	!	!	!	!LO:TX:t=P:problem=all/middle or left&colon; global	!
!	!	!	!	!LO:TX:t=P:problem=all\right&colon; global	!
!LO:TX:a:t=Msza na 3 męz[kie]&colon; glosy Winc[enty]&colon; Rychling	!	!LO:TX:a:t=Msza na 3 męz[kie]&colon; głosy Winc[enty]&colon; Rychling	!	!LO:TX:a:t=Msza na 3 głosy Winc[enty]. Rychling	!
2.AA/	Re-	2.E\	Re-	2.c\	Re-
4AA/	-qui-	4E\	-qui-	4c\	-qui-
=2	=2	=2	=2	=2	=2
*2\right	*	*	*	*2/left	*
2D\	-em	2F\	-em	2A/	-em
2r	.	2r	.	4r	.
.	.	.	.	(8d\L	ae-
.	.	.	.	8c\J)	.
=3	=3	=3	=3	=3	=3
4r	.	4r	.	(2.B\	-ter-
4D\	e-	4B\	e-	.	.
2D#X\	-ter-	2A\	-ter-	.	.
.	.	.	.	4c\)	.
=4	=4	=4	=4	=4	=4
2E\	-nam	2G#X\	-nam	2B\	-nam
2r	.	4G#\	do-	4B\	do-
.	.	4A\	-na	4c\	-na
=5	=5	=5	=5	=5	=5
2r	.	4B\	e-	4d\	e-
.	.	4d\	-is	4f\	-is
4E\	d-	4c\	Do-	4e\	Do-
4E\	-na	4B\	-mi-	4d\	-mi-
!	!	!LO:LB:g=original	!	!LO:LB:g=original	!
=6	=6	=6	=6	=6	=6
4F\	e-	4A\	-ne	4c\	-ne
4A\	-is	4r	.	4r	.
4G\	Do-	2r	.	2r	.
4F\	-mi-	.	.	.	.
!LO:LB:g=original	!	!	!	!	!
=7	=7	=7	=7	=7	=7
4E\	-ne	(4B\	et	(4d\	et
4D\	et	4G#X\)	.	4f\)	.
4C/	lux	4A\	lux	4e\	lux
4C/	per-	4B-X\	per-	4d\	per-
=8	=8	=8	=8	=8	=8
4.F\	-pe-	4.A\	-pe-	4.c\	-pe-
8F\	-tu-	8G#X\	-tu-	8B\	-tu-
2F\	-a	2A\	-a	2c\	-a
=9	=9	=9	=9	=9	=9
2BB-X/	et	2F\	et	2d\	et
4G\	lux	4B-X\	lux	4d\	lux
4F\	per-	4A\	per-	4d\	per-
=10	=10	=10	=10	=10	=10
4.E\	-pe-	4.G\	-pe-	(4d\	-pe-
.	.	.	.	8c\)	.
8E\	-tu-	8G\	-tu-	8B-X\	-tu-
(8F\L	-a	4G\	-a	2A/	-a
8E\	.	.	.	.	.
8D\	.	8F\L	.	.	.
8C\J)	.	8E\J	.	.	.
!LO:LB:g=original	!	!LO:LB:g=original	!	!LO:LB:g=original	!
=11	=11	=11	=11	=11	=11
2BB/	lu-	(8D\L	lu-	(4A/	lu-
.	.	8E\	.	.	.
.	.	8F\	.	4G#X/)	.
.	.	8D\J	.	.	.
4C/	-ce-	4E\)	-ce-	4A/	-ce-
4C/	-at	4E\	-at	4A/	-at
=12	=12	=12	=12	=12	=12
(4D\	e-	2A\	e-	(4f\	e-
4F\)	.	.	.	4d\)	.
4E;\	-is	4G#X;\	-is	4B;\	-is
4r;	.	4r;	.	4r;	.
=13	=13	=13	=13	=13	=13
4A\	Re-	4A\	Re-	4c\	Re-
4G\	-qui-	4A\	-qui-	4c\	-qui-
4F\	-em	4A\	-em	4c\	-em
4E\	e-	4A\	e-	4c\	ae-
=14	=14	=14	=14	=14	=14
4D#X\	-ter-	4A\	-ter-	4c\	-ter-
4E\	-nam	4A\	-nam	4c\	-nam
4F\	do-	4G#X\	do-	4B\	do-
4E\	-na	4G#\	-na	4B\	-na
=15	=15	=15	=15	=15	=15
(2C/	e-	2.A\	e-	(2e\	e-
4F\)	.	.	.	4c\)	.
4F\	-is	4A\	-is	4d\	-is
!LO:LB:g=original	!	!LO:LB:g=original	!	!LO:LB:g=original	!
=16	=16	=16	=16	=16	=16
4F\	Do-	4.A\	Do-	4.B\	Do-
8E\L	-mi-	.	.	.	.
8D#X\J	.	8G#X\	-mi-	8B\	-mi-
!LO:TX:a:t=Kyrie od tego nastronie 115	!	!LO:TX:b:t=Kyrie od tego na stronie 119	!	!LO:TX:a:t=Kyrie od tego na stronie 113	!
!	!	!	!	!LO:SIC:v:t=113 zmienione na 119	!
2E;\	-ne	2G#;<\	-ni	2B;\	-ne
==	==	==	==	==	==
*-	*-	*-	*-	*-	*-
!!!system-decoration: [(s1,s2,s3)]
!!!RDF**kern: > = above
!!!RDF**kern: < = below
!!!EED: Leszek Kubiak
!!!EEV: 2021-03-26
!!!ENC: Krzysztof Stępień
!!!END: 2021-03-05
!!!YEC: Copyright 2022 Narodowy Instytut Fryderyka Chopina (https://polishscores.org)
!!!YEM: License CC-BY-4.0 (https://creativecommons.org/licenses/by/4.0)
